X: 28495
T: Munster Bacon
R: jig
M: 6/8
K: Dmajor
|:ABA DFA|dg/f/e d2c|B3 dAF|GFG EFG|
A3 D3|B3 efg|f/g/af ede|1 fdc dcB:|2 fdc dfg||
|:afd dfa|bge a2g|f3 ged|ceA ABG|
F2d cee|dff efg|f/g/af ede|1 fdc dfg:|2 fdc dcB||

